X:1
T:Title
%%score { 1 | ( 2 3 ) }
L:1/8
Q:1/4=100
M:6/8
K:A
V:1 treble nm="Grand Piano"
V:2 bass 
V:3 bass 
V:1
 [CE]2 [CE] [CE][DF][DG] | [CA]3 [CE]3 | [DF]2 [FA] [EG]2 [DF] | [CE]6 | [CA]2 [CA] [CA][DB][Ec] | %5
w: J.~J.~Lowe * * * *|||||
 [Fd]3 F3 | E2 A A2 G | [CA]6 | B2 B Bcd | c3 [CEA]3 | G2 G A2 A | B6 | E2 E [CE][DF][DG] | %13
w: ||||||||
 [CA]2 [Ec] [DF]2 [FB] | E2 A B2 G | [CA]6 |] %16
w: |||
V:2
 [A,,A,]2 [A,,A,] [A,,A,]2 [A,,E,] | [A,,E,]3 [A,,A,]3 | [D,A,]2 [D,D] [D,D]2 [D,A,] | [A,,A,]6 | %4
 [A,,E,]2 [A,,E,] [A,,A,]2 [A,,A,] | [D,A,]3 [D,A,D]3 | [E,A,C]2 [E,CE] [E,B,D]2 [E,B,D] | %7
 [A,,A,]6 | [E,G,E]2 [E,G,E] [E,E]-[E,A,E][E,B,E] | [A,E]3 A,,3 | %10
 [E,B,E]2 [E,B,E] [F,B,^D]2 [F,B,D] | [E,G,D]6 | [A,C]2 [A,C] [A,,A,]2 [A,,E,] | %13
 [A,,E,]2 [A,,A,] [D,A,]2 [D,D] | [E,A,C]2 [E,A,C] [E,G,D]2 [E,B,D] | [A,,A,]6 |] %16
V:3
 x6 | x6 | x6 | x6 | x6 | x6 | x6 | x6 | z3 .G,3 | x6 | x6 | x6 | x6 | x6 | x6 | x6 |] %16

